X:2
T:Valse \`e Delsay (adaptiert fuer sack-pfeife)
R:valse
S:"Culture Populaire et Loisirs", PoitouZ
Z:original abc transcription by Stephan Steiner
N:adaptiert by Simon Wascher
M:3/4
L:1/8
K:G
D2 |\
BGDGBG | dGDGBG | d2 cFAc | B2 d2 D2 |\
BGDGBG | dGDGBG | d2 cFAc |1 B4  :|\
                           [2 B3 ||
|: DGB |\
d2 dedc | B2 GDGD | c2 ADAD | B2 GDGB |
d2 dedc | B2 GDGD | c2 ADAD |1 G3:|\
                            [2 G4 ||
